X: 531
T: Honble Miss Semple's Reel
R: reel
B: "Preston's Twenty Four Country Dances for the Year 1804", Tho. Preston, ed. p.226
F: http://imslp.org/wiki/24_Country_Dances_for_the_Year_1804_(Preston_(publisher),_Thomas)
M: C
L: 1/8
K: G
f |\
g2dB GBdB | a2ec Acea | g2(dB) GBdB | cedc BG-Gf |
g2(dB) GBdB | a2(ec) Acea | g2eg dgBg | cA (d/c/B/A/) BGG |]
D |\
(B,D).G.D (CE).A.E | (DF).A.B (cA).B.G | (B,D).G.D (CE).A.E | (DF).A.B (BG).G.D |
(B,D).G.D (CE).A.E | (DF).A.B (ce).d.c | (Bd).g.B (ce).a.g | (fd).a.f .g.G.G |]
% - - - - - - - - - - - - - - - - - - - - - - - - -
%%begintext align
%% 1st & 2d Cu. set & half right & left, back again,
%% lead down the middle up again, cast off & turn
%% your partner.
%%endtext

%%sep 1 1 500
